Origami/24x24/apps/rocketchat.svg

<svg width="24" height="24" version="1.1" viewBox="0 0 24 24" xmlns="http://www.w3.org/2000/svg">
 <path d="M 1,2.5 C 1.8470386,3.6858541 2.4575964,5.970654 2.7871094,8.598633 A 10.5,7 0 0 0 1,12.5 10.5,7 0 0 0 2.8857422,16.487304 C 2.6100829,19.079084 2.0054016,21.327031 1,22.5 c 2.9464545,0 5.586861,-1.28201 7.416992,-3.309571 A 10.5,7 0 0 0 11.5,19.5 10.5,7 0 0 0 22,12.5 10.5,7 0 0 0 11.5,5.5 10.5,7 0 0 0 8.421875,5.814453 C 6.591583,3.7839166 3.9489357,2.5 1,2.5 Z" style="opacity:.2"/>
 <path d="m11 12c0 5.522847-4.4771525 10-10 10 3-3.5 2.5-16.5 0-20 5.5228475 0 10 4.4771523 10 9.9999998z" style="fill:#c1272d"/>
 <ellipse cx="11.5" cy="12" rx="10.5" ry="7" style="fill:#c1272d"/>
 <path d="m11.5 7.500422c-2.5392015 0-4.8049933 0.7085371-6.3144531 1.7148438-1.5086627 1.0057752-2.184834 2.1614232-2.1855469 3.2832032 0.00336 0.814342 0.3592425 1.67576 1.2675781 2.544922a2.0002 2.0002 0 0 1 0.6054688 1.65625c-0.1159944 1.090165-0.3191385 2.088045-0.5488281 3.068359 0.9924063-0.458206 1.8790179-1.109261 2.6074218-1.916016a2.0002 2.0002 0 0 1 1.8847656 -0.61914c0.8626462 0.176658 1.7710218 0.26762 2.6835938 0.267578 2.539202 0 4.804993-0.708537 6.314453-1.714844 1.50946-1.006306 2.185547-2.16282 2.185547-3.285156s-0.676087-2.27885-2.185547-3.2851562c-1.50946-1.0063066-3.775251-1.7148438-6.314453-1.7148438z" style="opacity:.2"/>
 <path d="m11.5 7c-2.5392015 0-4.8049933 0.7085371-6.3144531 1.7148438-1.5086627 1.005775-2.184834 2.1614232-2.1855469 3.2832032 0.0033587 0.814342 0.3592425 1.67576 1.2675781 2.544922a2.0002 2.0002 0 0 1 0.6054688 1.65625c-0.1159944 1.090165-0.3191385 2.088045-0.5488281 3.068359 0.9924063-0.458206 1.8790179-1.109261 2.6074218-1.916016a2.0002 2.0002 0 0 1 1.8847656 -0.61914c0.8626462 0.176658 1.7710218 0.26762 2.6835938 0.267578 2.539202 0 4.804993-0.708537 6.314453-1.714844 1.50946-1.006306 2.185547-2.16282 2.185547-3.285156s-0.676087-2.2788498-2.185547-3.2851562c-1.50946-1.0063066-3.775251-1.7148438-6.314453-1.7148438z" style="fill:#ffffff"/>
 <path d="m9 11.5a1 1 0 0 0 -1 1 1 1 0 0 0 1 1 1 1 0 0 0 1 -1 1 1 0 0 0 -1 -1zm3 0a1 1 0 0 0 -1 1 1 1 0 0 0 1 1 1 1 0 0 0 1 -1 1 1 0 0 0 -1 -1zm3 0a1 1 0 0 0 -1 1 1 1 0 0 0 1 1 1 1 0 0 0 1 -1 1 1 0 0 0 -1 -1z" style="opacity:.2"/>
 <path d="m9 11a1 1 0 0 0 -1 1 1 1 0 0 0 1 1 1 1 0 0 0 1 -1 1 1 0 0 0 -1 -1zm3 0a1 1 0 0 0 -1 1 1 1 0 0 0 1 1 1 1 0 0 0 1 -1 1 1 0 0 0 -1 -1zm3 0a1 1 0 0 0 -1 1 1 1 0 0 0 1 1 1 1 0 0 0 1 -1 1 1 0 0 0 -1 -1z" style="fill:#c1272d"/>
 <path d="M 1 2 C 1.1101046 2.1541464 1.2163403 2.3279514 1.3183594 2.5175781 C 4.1378237 2.6073254 6.6583889 3.8594311 8.421875 5.8164062 A 10.5 7 0 0 1 11.5 5.5 A 10.5 7 0 0 1 21.984375 12.298828 A 10.5 7 0 0 0 22 12 A 10.5 7 0 0 0 11.5 5 A 10.5 7 0 0 0 8.421875 5.3164062 C 6.5915506 3.2852593 3.9494444 2 1 2 z M 2.7207031 8.171875 A 10.5 7 0 0 0 1 12 A 10.5 7 0 0 0 1.0175781 12.236328 A 10.5 7 0 0 1 2.7871094 8.5976562 C 2.7685986 8.4500675 2.7409797 8.3171649 2.7207031 8.171875 z M 2.8222656 16.421875 C 2.5264857 18.823011 1.9469548 20.895219 1 22 C 1.126696 22 1.2494759 21.985167 1.375 21.980469 C 2.1572353 20.726938 2.6454634 18.73703 2.8847656 16.486328 A 10.5 7 0 0 1 2.8222656 16.421875 z" style="fill:#ffffff;opacity:.2"/>
</svg>

<svg xmlns="http://www.w3.org/2000/svg" width="24" height="24" version="1.1" viewBox="0 0 24 24">
 <path style="opacity:0.2" d="M 1,2.5 C 1.8470386,3.6858541 2.4575964,5.970654 2.7871094,8.598633 A 10.5,7 0 0 0 1,12.5 10.5,7 0 0 0 2.8857422,16.487304 C 2.6100829,19.079084 2.0054016,21.327031 1,22.5 c 2.9464545,0 5.586861,-1.28201 7.416992,-3.309571 A 10.5,7 0 0 0 11.5,19.5 10.5,7 0 0 0 22,12.5 10.5,7 0 0 0 11.5,5.5 10.5,7 0 0 0 8.421875,5.814453 C 6.591583,3.7839166 3.9489357,2.5 1,2.5 Z"/>
 <path style="fill:#c1272d" d="M 11,12 C 11,17.522847 6.5228475,22 1,22 4,18.5 3.5,5.5 1,2.0000002 6.5228475,2.0000002 11,6.4771525 11,12 Z"/>
 <ellipse style="fill:#c1272d" cx="11.5" cy="12" rx="10.5" ry="7"/>
 <path style="opacity:0.2" d="m 11.5,7.500422 c -2.5392015,0 -4.8049933,0.7085371 -6.3144531,1.7148438 C 3.6768842,10.221041 3.0007129,11.376689 3,12.498469 c 0.00336,0.814342 0.3592425,1.67576 1.2675781,2.544922 a 2.0002,2.0002 0 0 1 0.6054688,1.65625 C 4.7570525,17.789806 4.5539084,18.787686 4.3242188,19.768 5.3166251,19.309794 6.2032367,18.658739 6.9316406,17.851984 a 2.0002,2.0002 0 0 1 1.8847656,-0.61914 c 0.8626462,0.176658 1.7710218,0.26762 2.6835938,0.267578 2.539202,0 4.804993,-0.708537 6.314453,-1.714844 C 19.323913,14.779272 20,13.622758 20,12.500422 20,11.378086 19.323913,10.221572 17.814453,9.2152658 16.304993,8.2089592 14.039202,7.500422 11.5,7.500422 Z"/>
 <path style="fill:#ffffff" d="M 11.5 7 C 8.9607985 7 6.6950067 7.7085371 5.1855469 8.7148438 C 3.6768842 9.7206188 3.0007129 10.876267 3 11.998047 C 3.0033587 12.812389 3.3592425 13.673807 4.2675781 14.542969 A 2.0002 2.0002 0 0 1 4.8730469 16.199219 C 4.7570525 17.289384 4.5539084 18.287264 4.3242188 19.267578 C 5.3166251 18.809372 6.2032367 18.158317 6.9316406 17.351562 A 2.0002 2.0002 0 0 1 8.8164062 16.732422 C 9.6790524 16.90908 10.587428 17.000042 11.5 17 C 14.039202 17 16.304993 16.291463 17.814453 15.285156 C 19.323913 14.27885 20 13.122336 20 12 C 20 10.877664 19.323913 9.7211502 17.814453 8.7148438 C 16.304993 7.7085372 14.039202 7 11.5 7 z"/>
 <path style="opacity:0.2" d="m 9,11.5 a 1,1 0 0 0 -1,1 1,1 0 0 0 1,1 1,1 0 0 0 1,-1 1,1 0 0 0 -1,-1 z m 3,0 a 1,1 0 0 0 -1,1 1,1 0 0 0 1,1 1,1 0 0 0 1,-1 1,1 0 0 0 -1,-1 z m 3,0 a 1,1 0 0 0 -1,1 1,1 0 0 0 1,1 1,1 0 0 0 1,-1 1,1 0 0 0 -1,-1 z"/>
 <path style="fill:#c1272d" d="M 9 11 A 1 1 0 0 0 8 12 A 1 1 0 0 0 9 13 A 1 1 0 0 0 10 12 A 1 1 0 0 0 9 11 z M 12 11 A 1 1 0 0 0 11 12 A 1 1 0 0 0 12 13 A 1 1 0 0 0 13 12 A 1 1 0 0 0 12 11 z M 15 11 A 1 1 0 0 0 14 12 A 1 1 0 0 0 15 13 A 1 1 0 0 0 16 12 A 1 1 0 0 0 15 11 z"/>
 <path style="opacity:0.2;fill:#ffffff" d="M 1 2 C 1.1101046 2.1541464 1.2163403 2.3279514 1.3183594 2.5175781 C 4.1378237 2.6073254 6.6583889 3.8594311 8.421875 5.8164062 A 10.5 7 0 0 1 11.5 5.5 A 10.5 7 0 0 1 21.984375 12.298828 A 10.5 7 0 0 0 22 12 A 10.5 7 0 0 0 11.5 5 A 10.5 7 0 0 0 8.421875 5.3164062 C 6.5915506 3.2852593 3.9494444 2 1 2 z M 2.7207031 8.171875 A 10.5 7 0 0 0 1 12 A 10.5 7 0 0 0 1.0175781 12.236328 A 10.5 7 0 0 1 2.7871094 8.5976562 C 2.7685986 8.4500675 2.7409797 8.3171649 2.7207031 8.171875 z M 2.8222656 16.421875 C 2.5264857 18.823011 1.9469548 20.895219 1 22 C 1.126696 22 1.2494759 21.985167 1.375 21.980469 C 2.1572353 20.726938 2.6454634 18.73703 2.8847656 16.486328 A 10.5 7 0 0 1 2.8222656 16.421875 z"/>
</svg>
